symbols/web/bookmark_remove/materialsymbolssharp/bookmark_remove_wght100grad200_24px.svg

<svg xmlns="http://www.w3.org/2000/svg" height="24" width="24"><path d="M5.55 20V3.4h7.55v1.35H6.9v13.2l5.1-2.2 5.1 2.2v-7.2h1.35V20L12 17.25ZM6.9 4.75h6.2H6.9Zm13.55 2H15.1V5.4h5.35Z"/></svg>

<svg xmlns="http://www.w3.org/2000/svg" height="24" width="24"><path d="M5.55 20V3.4H13.1Q13.1 3.8 13.1 4.075Q13.1 4.35 13.1 4.75H6.9V17.95L12 15.75L17.1 17.95V10.75Q17.5 10.75 17.775 10.75Q18.05 10.75 18.45 10.75V20L12 17.25ZM6.9 4.75H13.1Q13.1 4.75 13.1 4.75Q13.1 4.75 13.1 4.75Q13.1 4.75 13.1 4.75Q13.1 4.75 13.1 4.75H12H6.9ZM20.45 6.75H15.1V5.4H20.45Z"/></svg>
